!!!COM:	Compere, Loyset
!!!CDT:	~1445///-1518/08/16
!!!OTL:	Tant ha bon oeul
!!!AGN:	Song; Chanson
!!!SCT:	Com3040
!!!SCA:	Com3040
!!!voices:	3
**kern	**kern	**kern
*staff3	*staff2	*staff1
*Ivox	*Ivox	*Ivox
*I"Bassus	*I"Tenor	*I"Superius
*I'B	*I'T	*I'S
*clefF4	*clefGv2	*clefG2
*k[b-]	*k[]	*k[]
*M2/1	*M2/1	*M2/1
*met(C|)	*met(C|)	*met(C|)
=1-	=1-	=1-
0E	0r	0r
=2	=2	=2
1.D	0r	0r
2E	.	.
=3	=3	=3
1F	1r	0r
1G	1E	.
=4	=4	=4
1F	1.D	0r
[1D	.	.
.	2E	.
=5	=5	=5
1D]	1F	1r
1C	[1G	1e
=6	=6	=6
1BB-	2G]	1d
.	2A	.
1GG	1B-i	1d
=7	=7	=7
2AA	1.A	1.f
2FF	.	.
2AA	.	.
2BB-	4G	4e
.	4F	4d
=8	=8	=8
1C	1E	1c
1AA	2r	2r
.	2E	2c
=9	=9	=9
1BB-	2D	1d
.	1F	.
1F	.	1d
.	4E	.
.	4D	.
=10	=10	=10
2.G	4C	1e
.	4D	.
.	4E	.
4F	4F	.
2E	4G	1e
.	4A	.
4D	4B	.
4C	4c	.
=11	=11	=11
2BB-	2d	2f
2E-i	1c	2.g
1D	.	.
.	.	4f
.	2B	4e
.	.	4d
=12	=12	=12
2.C	2c	2e
.	4B	2f
4D	4A	.
2E	2G	2g
[2F	2F	[2a
=13	=13	=13
4F]	1c	2a]
4E	.	.
1A	.	4g
.	.	4f
.	1B	4g
.	.	4f
2G	.	4e
.	.	4d
=14	=14	=14
2A	1A	2f
2AA	.	2.e
2BB-	1G	.
.	.	4d
2C	.	4c
.	.	4B
=15	=15	=15
1D	1F	2.A
.	.	4B
2AA	2E	2c
2BB-	2D	2d
=16	=16	=16
2C	2G	2e
2D	2F	1d
1AA	1E	.
.	.	2c#i
=17	=17	=17
1r	2D	0d
.	1F	.
1F	.	.
.	4E	.
.	4D	.
=18	=18	=18
1.E	4C	0r
.	4D	.
.	4E	.
.	4F	.
.	2G	.
2F	[2F	.
=19	=19	=19
1G	2F]	1r
.	4E	.
.	4D	.
1G	1E	1B
=20	=20	=20
2F	0F	1.A
1A	.	.
4G	.	2B
4F	.	.
=21	=21	=21
2E	1r	1c
1C	.	.
.	1E	1c
4BB-	.	.
4AA	.	.
=22	=22	=22
2.BB-	1D	0d
4C	.	.
2D	1F	.
2BB-	.	.
=23	=23	=23
2.C	2.E	1e
4D	4F	.
2E	2G	2r
[2F	2A	4d
.	.	4c
=24	=24	=24
2F]	2B	2d
2E	2c	2e
1D	2d	2f
.	2B	2g
=25	=25	=25
2C	1c	1e
2E	.	.
2F	2A	2c
[2G	[2B	[2d
=26	=26	=26
4G]	4B]	4d]
4A	4A	4c
4E	4G#i	4B
4F	4F#i	4A
1E	1G#i	1B
=27	=27	=27
1r	0A	0A
1AA	.	.
=28	=28	=28
1BB-	1r	1r
1BB-	1F	1d
=29	=29	=29
4C	0E	0c
4D	.	.
4E	.	.
4F	.	.
2G	.	.
4F	.	.
4E	.	.
=30	=30	=30
4F	1D	1d
4E	.	.
4D	.	.
4C	.	.
2.BBni	1D	1f
4AA	.	.
=31	=31	=31
1C	0C	1e
1AA	.	1e
=32	=32	=32
0BB-	2.D	2d
.	.	1f
.	4E	.
.	2F	.
.	2G	4e
.	.	4d
=33	=33	=33
1AA	2A	2c
.	4B	2e
.	4c	.
1r	2d	2f
.	2c	[2g
=34	=34	=34
2r	2B	4g]
.	.	4f
2AA	2A	1f
2BB-	1G	.
2C	.	2e
=35	=35	=35
1D	0F	1f
1F	.	1a
=36	=36	=36
2E-i	0B-	2g
1D	.	1f
4C	.	4e
4BB-	.	4d
=37	=37	=37
2C	1A	2e
2D	.	2f
2GG	1B-i	4g
.	.	4f
2BB-	.	4e
.	.	4d
=38	=38	=38
2.AA	2c	2c
.	4B-i	2f
4BB-	4A	.
2C	2G	2e
[2D	2F	2A
=39	=39	=39
2D]	2D	2B
2C	2E	2c
1BB-	2F	2.d
.	2G	.
.	.	4e
=40	=40	=40
1AA	1.A	0c
2r	.	.
2AA	4G	.
.	4F	.
=41	=41	=41
1AA	0E	1r
1AA	.	1c
=42	=42	=42
2BB-	1D	0f
4AA	.	.
4GG	.	.
2FF	2r	.
[2F	2D	.
=43	=43	=43
4F]	1A	1.f
4E	.	.
4D	.	.
4C	.	.
1D	1B	.
.	.	4e
.	.	4d
=44	=44	=44
0C	1.c	1e
.	.	2r
.	4B	2e
.	4A	.
=45	=45	=45
1r	2B	0g
.	2c	.
1E	2B	.
.	[2e	.
=46	=46	=46
0E	2e]	0g
.	4d	.
.	4c	.
.	1B	.
=47	=47	=47
1F	2.A	1a
.	4B	.
2E	2c	2g
2D	[2d	[2f
=48	=48	=48
2F	2d]	2f]
2G	4c	4e
.	4B	4d
2A	2c	2c
2B-	2d	2B-i
=49	=49	=49
2A	2c	2.c
1c	1A	.
.	.	4d
.	.	2e
4B-	4G	2f
4A	4F	.
=50	=50	=50
2G	2E	2g
2F	2D	2a
4B-	1d	2f
4A	.	.
4G	.	[2b-i
4F	.	.
=51	=51	=51
2E	2c	4b-]
.	.	4a
2F	2A	1a
1E	1B	.
.	.	2g#i
=52	=52	=52
1AA	0A	0a
2r	.	.
2F	.	.
=53	=53	=53
1E	1r	0r
1E	1G	.
=54	=54	=54
2D	1F	1r
1BB-	.	.
.	1G	1b-i
4AA	.	.
4GG	.	.
=55	=55	=55
4FF	1.A	0a
4GG	.	.
4AA	.	.
4BB-	.	.
2C	.	.
2D	4G	.
.	4F	.
=56	=56	=56
2E	0E	1g
2C	.	.
1G	.	2r
.	.	2g
=57	=57	=57
1.F	4D	1.a
.	4E	.
.	4F	.
.	4G	.
.	2A	.
4E	2B	4g
4D	.	4f
=58	=58	=58
2A	2c	2e
2B-	1d	2d
1A	.	1e
.	2c#i	.
=59	=59	=59
2D	2d	1d
1F	4c	.
.	4B	.
.	2A	1f
4E	2B	.
4D	.	.
=60	=60	=60
2C	2c	2e
1E	4B	2c
.	4A	.
.	2G	2e
2D	2A	2f
=61	=61	=61
2BB-	2B-i	2g
1D	4A	4f
.	4G	4e
.	2F	2d
2C	2G	2e
=62	=62	=62
2AA	2A	2f
1C	4G	4e
.	4F	4d
.	2E	2c
2BB-	2F	2d
=63	=63	=63
2GG	2G	2e
2AA	4F	4d
.	4E	4c
2BB-	2D	2B-i
2C	2C	2A
=64	=64	=64
2GG	1D	2B-i
2BB-	.	1d
1AA	1E	.
.	.	2c#i
=65	=65	=65
0Dl	0Dl	0dl
==	==	==
*-	*-	*-
!!!RDF**kern: l=long note in original notation
!!!RDF**kern: i=editorial accidental
!!!ENC:	Megan K. Eagen 2013/11/30
!!!END:	2013/11/30/
!!!EED:	Jesse Rodin
!!!EEV:	2014/02/23/
!!!ONB:	Translated from MusicXML and edited on 2014/02/23/ by Craig Sapp
!!muse2ps: C^@{COM}^i2I150v95,95,150Q16
